X:111
T:Magpie,The. RH.111
T:Maid,The,by H.R.Bishop. RH.111
R:Set Tune
S:Rev.R.Harrison’s MS,c1815,Cumbria
N:Usable as a polka.
O:England
A:Temple Sowerby,Cumbria
Z:vmp.Simon Wilson. Review PJH, 2008.
M:2/4
L:1/8
Q:1/4=120
K:D
|:A>A|\
f>e ((3dcB)|A>F A>d|B>G g>e|c>A d>e|!
f>e ((3dcB)|A>G A>d|B>d ((3gec)|d2:|!
|:A>G|((3FGA) ((3Bcd)|((3FGA) ((3Bcd)|\
A>G ((3FBA)|G>E A>G|!
((3FGA) ((3Bcd)|((3FGA) ((3Bcd)|A>f ((3gec)|d2:|

